X:1
T: Funny Mistake, The
C:
L:1/8
Q:380
K:C
M:9/8
G |: c2e ege g2d | e2c fdc B2G | c2e ege f2d |1 e2c fdB c2G :|2 e2c fdB c2B/c/ |: ded dBG BAG | \
 ded dBG ABc | ded dBG BAG |1 ege fdB c2B/c/ :|2 ege fdB c3 | \
